X: 03052
T: LARRY'S WALTZ
C: Bob McQuillen 27 Dec 77
B: Bob's Note Book 03 #52
R: waltz
%D:1977
Z: 2020 John Chambers <jc:trillian.mit.edu>
M: 3/4
L: 1/4
K: G
GA \
| "G"Bc>B | AG>F | G3- | GG>A | BB>c | dcB | "D"A3- | A2-A/ B/ |
| "C"cc>d | ede | dB>A | "Em"G2A | BDB | A>GA | G3- | G :|
|: Bd \
| "C"gg>g | gfe | d2-d/ e/ | dBd | "C"gg>g | f2e | "D"d3- | dba |
| "C"gg>g | gfe | dd>d | dcB | AA>B | cBA | G3- | G :|
%%begintext align
%% With love always to Larry Haddock,
%% who is one of the brighter lights in my life.
%%endtext

%%sep 1 1 500

%%sep 1 1 500

